X:1
T:Title
%%score { ( 1 4 ) | ( 2 3 ) }
L:1/8
M:4/4
K:Eb
V:1 treble nm="Grand Piano"
V:4 treble 
V:2 bass 
V:3 bass 
V:1
 z4 z2[Q:1/4=100] EF | G2 G2 G2 [FA]2 | [GB]4 G2 B2 | c3 c B2 G2 |[M:3/4] [DF]6 |[M:1/4] [DF][EG] | %6
[M:4/4] [FA]2 [FA]2 [FA]2 [DF]2 | G2 A2 B2 c2 | d3 B c2 c2 |[M:3/4] [DB]6 |[M:1/4] cd | %11
[M:4/4] e6 z2 | B6 z2 | B6 F2 | z2 E>E E2 c>d | e2- [Ge-]>[Ge-] [Ee]2 d>c | B2- [AB-]>[AB] B2 B>A | %17
 G4 [DF]3 [DF] |[M:3/4] E6 |] %19
V:2
 z4 z2 [E,G,][E,A,E] | [E,B,E]2 [E,B,E]2 [E,B,E]2 [E,B,]2 | [E,E]4 [E,B,E]2 [E,G,E]2 | %3
 [A,E]3 [A,E] [G,B,E]2 [E,B,E]2 |[M:3/4] [B,,B,]6 |[M:1/4] [B,,B,][B,,B,] | %6
[M:4/4] [B,,B,]2 [B,,B,]2 [B,,B,]2 [B,,B,]2 | B,2- [F,B,D]2 [G,E]2 [_G,B,E]2 | %8
 [F,B,F]3 [F,B,D] [F,B,E]2 [F,=A,E]2 |[M:3/4] [B,,B,]6 |[M:1/4][K:treble] [B,A][B,A] | %11
[M:4/4][K:bass] [E,B,]2 [E,B,]>[E,B,] [G,B,]2 [A,CE]>[A,EA] | [E,E]2 [E,E]>[E,E] [E,E]2 [E,B,E]2 | %13
 B,,2 B,,>B,, B,,2 [B,,B,]>[B,,B,] | [E,B,E]2 [E,B,]>[E,B,] [E,B,]2[K:treble] [B,A]>[B,A] | %15
 [E,B,]2 [E,B,]>[E,B,] [G,B,]2 [A,CE]>[A,EA] | [E,E]2 [F,D]>[F,D] [G,E]2 [A,CE]>[A,CE] | %17
 [B,E]4 [B,,A,]3 [B,,A,] |[M:3/4] [E,G,]6 |] %19
V:3
 x8 | x8 | x8 | x8 |[M:3/4] x6 |[M:1/4] x2 |[M:4/4] x8 | [E,E]2 z2 z4 | x8 |[M:3/4] x6 | %10
[M:1/4][K:treble] x2 |[M:4/4][K:bass] x8 | x8 | x8 | x6[K:treble] x2 | x8 | x8 | x8 |[M:3/4] x6 |] %19
V:4
 x8 | x8 | x8 | x8 |[M:3/4] x6 |[M:1/4] x2 |[M:4/4] x8 | x8 | x8 |[M:3/4] x6 |[M:1/4] x2 | %11
[M:4/4] G2 G>G E2 d>c | G2 G>G G2 G>G | [DF]2 [DF]>[DF] [DF]2 D->[DB] | G6 z2 | G2 z2 z4 | %16
 G2 z2 z4 | x8 |[M:3/4] x6 |] %19

